!!!id: 16xx:1222
!!!COM: Anonim
!!!OTL: Missa alia Paschalis – Kyrie
!!!PDT:
!!!SMS-siglum: PL-Kk
!!!SMS-shelfmark: Kk.I.10
!!!NIFC-rismID: 1001154103
!!!URL-scan: http://repozytorium.nifc.pl/skany/pl-kk-nut--i-10
!!!ONB-nifc: UWAGA: części Mszy: 1. Kyrie, 2. Et in terra, 3. Patrem, 4. Sanctus, 5. Benedictus, 6. Agnus Dei. A (0038-0041), T (0087-0090), B (0136-0139)
!!!SMS-variant:
!!!SMS-altvar:
**kern	**text	**kern	**text	**kern	**text
*part3	*part3	*part2	*part2	*part1	*part1
*staff3	*staff3	*staff2	*staff2	*staff1	*staff1
*I"[Bassus]	*	*I"[Tenor]	*	*I"alt(us).	*
*I'B	*	*I'T	*	*I'A	*
*clefF4	*	*clefC4	*	*clefC3	*
*k[b-]	*	*k[b-]	*	*k[b-]	*
*M3/1	*	*M3/1	*	*M3/1	*
=1	=1	=1	=1	=1	=1
!LO:TX:a:t=Sup(er)\nSurrexit D(omi)n(us) Valete Luct(us)	!	!LO:TX:a:t=Super Surrexit \nD(omi)n(us) Valete.\nLuct(us)	!	!LO:TX:a:t=Super Surrexit \nD(omi)n(us)\nValete Luct(us)	!
1.G\	Ky-	1.B-\	Ky-	1.g\	Ky-
2G\	-ri-	2B-\	-ri-	2g\	-ri-
1G\	-e	1B-\	-e	1d\	-e
=2-	=2-	=2-	=2-	=2-	=2-
0G\	e-	0B-\	e-	0d\	e-
1G\	-ley-	1B-\	-ley-	(2d\	-ley-
.	.	.	.	2e\)	.
=3-	=3-	=3-	=3-	=3-	=3-
0.F\	-ſon	0.A\	-ſon	0.f\	-son
=4-	=4-	=4-	=4-	=4-	=4-
*	*ij	*	*ij	*	*ij
2G\	Ky-	2G/	Ky-	2d\	Ky-
2G\	-ri-	2G/	-ri-	2d\	-ri-
1E\	-e	1G/	-e	1g\	-e
1E\	e-	1G/	e-	1g\	e-
=5-	=5-	=5-	=5-	=5-	=5-
0D\	-ley-	0A\	-ley-	0f\	-ley-
1D\	-ſon	1A\	-ſon	1f\	-son
*	*Xij	*	*Xij	*	*Xij
!	!	!LO:LB:g=original	!	!	!
=6-	=6-	=6-	=6-	=6-	=6-
1.D\	Ky-	1.A\	Ky-	1.g\	Ky-
2D/	-ri-	2A/	-ri-	2g\	-ri-
1D\	-e,	1A\	-e,	1g\	-e
!	!	!	!	!LO:LB:g=original	!
=7-	=7-	=7-	=7-	=7-	=7-
1.G\	Ky-	1.d\	Ky-	1.d\	Ky-
2G\	-ri-	2d\	-ri-	2d\	-ri-
2G\	-e	2d\	-e	2e\	-e
2G\	e-	2d\	e-	2e\	e-
=8-	=8-	=8-	=8-	=8-	=8-
0F\	-ley-	0c\	-ley-	0f\	-ley-
1F\	-ſon	1c\	-ſon	1f\	-son
=9-	=9-	=9-	=9-	=9-	=9-
*	*	*	*ij	*	*ij
1.F\	Ky-	1.A\	Ky-	1.f\	Ky-
2F\	-ri-	2A/	-ri-	2f\	-ri-
1D\	-e	1d\	-e	1f\	-e
!LO:LB:g=original	!	!	!	!	!
=10-	=10-	=10-	=10-	=10-	=10-
*col	*	*col	*	*col	*
0A\	e-	0c\	e-	0e\	e-
0A\	-ley-	0c\	-ley-	0e\	-ley-
=11-	=11-	=11-	=11-	=11-	=11-
.	.	.	.	.	.
0A\	-ſon	0c\	-ſon	0g\	-son
*Xcol	*ij	*Xcol	*Xij	*Xcol	*
=12-	=12-	=12-	=12-	=12-	=12-
1.B-\	Ky-	1.B-\	ky-	1.f\	Ky-
2B-\	-ri-	2B-\	-ri-	2f\	-ri-
2B-\	-e	2B-\	-e	2f\	-e
2B-\	e-	2B-\	e-	2f\	e-
!	!	!LO:PB:g=original	!	!	!
=13-	=13-	=13-	=13-	=13-	=13-
0G\	-ley-	0B-\	-ley-	0g\	-ley-
2G\	-ſon	2B-\	-ſon	2g\	-son
*	*Xij	*	*	*	*Xij
2G\	e-	2B-\	e-	2g\	e-
=14-	=14-	=14-	=14-	=14-	=14-
0F\	-lêy-	0c\	-lej-	0a\	-ley-
1F\	-ſon	1c\	-ſon	1a\	-son
=15-	=15-	=15-	=15-	=15-	=15-
1.F\	Ky-	1.A\	Ky-	1.f\	Ky-
2F\	-ri-	2A/	-ri-	2f\	-ri-
1F\	-e	1G/	-e	1f\	-e
=16-	=16-	=16-	=16-	=16-	=16-
*	*ij	*	*ij	*	*ij
1.BB-/	Ky-	1.B-\	Ky-	1.f\	Ky-
2BB-/	-ri-	2B-\	-ri-	2f\	-ri-
1F\	-e	1A\	-e	1f\	-e
*	*Xij	*	*Xij	*	*Xij
!	!	!	!	!LO:LB:g=original	!
=17-	=17-	=17-	=17-	=17-	=17-
1G\	e-	1G/	e-	1d\	e-
!	!	!LO:TX:t=P:problem:♯ above	!	!	!
0D\	-ley-	0F#X/	-ley-	0d\	-ley-
=18-	=18-	=18-	=18-	=18-	=18-
0.GG/	-ſon	1.G/	.	0.d\	-son
.	.	2A/	.	.	.
.	.	1B-\	-ſon	.	.
=19-	=19-	=19-	=19-	=19-	=19-
*	*ij	*	*ij	*	*ij
0C/	e-	0c\	e-	0e-X\	e-
!LO:N:acc=#	!	!	!	!	!
1BBn/	.	1d\	.	1d\	.
=20-	=20-	=20-	=20-	=20-	=20-
0.C/	-ley-	0.c\	-ley-	0.e-xX\	-ley-
=21-	=21-	=21-	=21-	=21-	=21-
!	!	!LO:TX:t=P:problem:♯ above	!	!	!
!	!	!LO:N:acc=#	!	!	!
0.GG/;<	-ſon	0.Bn\;;	-ſon	0.d\	-son
=22-	=22-	=22-	=22-	=22-	=22-
*M3/1	*Xij	*M3/1	*Xij	*M3/1	*Xij
!LO:N:vis=00	!	!	!	!	!
00.r	.	1G/	Chri-	1%3r	.
.	.	1G/	-ſte	.	.
!	!	!LO:SIC:v:t=custos B	!	!	!
.	.	1A\	e-	.	.
!	!	!LO:LB:g=original	!	!	!
=23-	=23-	=23-	=23-	=23-	=23-
.	.	1.B-y\	-ley-	1d\	Chri-
.	.	.	.	1d\	-ſte
.	.	2B-\	-ſon	.	.
.	.	2A/	.	1eny\	e-
.	.	2G/	.	.	.
=24-	=24-	=24-	=24-	=24-	=24-
1D\	Chri-	0A\	Chri-	1.f\	-ley-
1D\	-ſte	.	.	.	.
.	.	.	.	2f\	.
1E\	e-	1G/	.	2e\	.
.	.	.	.	2d\	.
=25-	=25-	=25-	=25-	=25-	=25-
1.F\	-ley-	0A\	-ste	0c\	.
2F\	-ſon	.	.	.	.
2E\	.	1B-\	e-	1d\	-son
2D\	.	.	.	.	.
=26-	=26-	=26-	=26-	=26-	=26-
1.C/	chri-	0c\	-ley-	1.e\	Chri-
2BB-y/	.	.	.	2e\	-ſte
1AA/	-ſte	1c\	-ſon	1f\	e-
=27-	=27-	=27-	=27-	=27-	=27-
1GG/	chri-	0d\	X-	2g\	-ley-
.	.	.	.	4f\	.
.	.	.	.	4e\	.
1GG/	-ſte	.	.	2d\	.
.	.	.	.	2e\	.
!	!	!	!	!LO:LB:g=original	!
1AA/	e-	1c\	-(t)é	2f\	.
!	!	!	!	!LO:TX:t=P:problem:kreska pseudotaktowa	!
.	.	.	.	2e\	.
=28-	=28-	=28-	=28-	=28-	=28-
1.BB-/	-ley-	1d\	chri-	0d\	.
.	.	1d\	-ſte	.	.
2BB-/	-ſon	.	.	.	.
2AA/	.	1e\	e-	1d\	-son
2GG/	.	.	.	.	.
=29-	=29-	=29-	=29-	=29-	=29-
*	*ij	*	*	*	*ij
2FF/	chri-	1.f\	-ley-	1f\	Chri-
2D\	.	.	.	.	.
1D\	-ſte	.	.	1f\	-ſte
.	.	2f\	-ſon	.	.
1E\	.	2e\	.	1g\	.
.	.	2d\	.	.	.
=30-	=30-	=30-	=30-	=30-	=30-
*	*	*	*ij	*	*
1.F\	e-	1c\	Chri-	1.a\	e-
.	.	1c\	-ſte	.	.
2F\	-ley-	.	.	2a\	-ley-
2E\	.	1B-\	e-	2g\	.
2D/	.	.	.	2f\	.
!LO:PB:g=original	!	!	!	!	!
=31-	=31-	=31-	=31-	=31-	=31-
0.C/	-ſon	1.c\	-ley-	0e\	.
.	.	2c\	-ſon	.	.
.	.	2B-\	.	1f\	.
*	*Xij	*	*Xij	*	*
.	.	2A/	.	.	.
!	!	!LO:LB:g=original	!	!	!
=32-	=32-	=32-	=32-	=32-	=32-
!LO:N:vis=0	!	!	!	!	!
0.r	.	2G/	e-	0g\	.
.	.	2A/	.	.	.
.	.	2B-\	.	.	.
.	.	2c\	.	.	.
.	.	1d\	-ley-	1f\	.
=33-	=33-	=33-	=33-	=33-	=33-
1G\	chri-	0.G/	-ſon	0.g\	-son
*	*	*	*	*	*Xij
1G\	-ſte	.	.	.	.
1A\	ê-	.	.	.	.
=34-	=34-	=34-	=34-	=34-	=34-
!	!	!LO:N:vis=0	!	!	!
1.B-\	-ley-	0.r	.	1f\	chri-
.	.	.	.	1f\	-ſte
2B-\	-ſon	.	.	.	.
2A\	.	.	.	1g\	.
2G\	.	.	.	.	.
=35-	=35-	=35-	=35-	=35-	=35-
(1.F\	chri-	1A\	Chri-	1.a\	e-
.	.	1A\	-ſte	.	.
2E\)	.	.	.	2a\	-ley-
1D\	-ſte	1B-\	e-	2g\	-son
.	.	.	.	2f\	.
=36-	=36-	=36-	=36-	=36-	=36-
1.C/	e-	1.c\	-ley-	1.e\	e-
2BB-/	.	2c\	.	2d\	.
1AA/	.	2B-\	.	2e\	.
.	.	2c\	.	2f\	.
!	!	!	!	!LO:LB:g=original	!
=37-	=37-	=37-	=37-	=37-	=37-
0GG/	-ley-	0.d\	.	0g\	-ley-
1D\	-ſon	.	.	1f\	.
=38-	=38-	=38-	=38-	=38-	=38-
1GG/	chri-	1B-\	-ſon	1.g\	-son
1GG/	-ſte	1B-\	X-	.	.
.	.	.	.	2d\	e-
1AA/	e-	1c\	-(t)e	2f\	.
.	.	.	.	2e\	.
=39-	=39-	=39-	=39-	=39-	=39-
1.BB-/	-ley-	1B-\	X-	2d\	.
.	.	.	.	2e\	.
.	.	1B-\	-(t)e	2f\	.
2BB-/	.	.	.	2d\	.
1AA/	-ſon	1c\	e-	2e\	.
.	.	.	.	2f\	.
=40-	=40-	=40-	=40-	=40-	=40-
2GG/	e-	0d\	-ley-	0g\	-ley-
2AA/	.	.	.	.	.
2BB-/	.	.	.	.	.
2C/	.	.	.	.	.
1D\	.	1B-\	-ſon	1f\	-ſon
!LO:LB:g=original	!	!	!	!	!
=41-	=41-	=41-	=41-	=41-	=41-
!	!	!	!	!LO:TX:t=P:problem:♭ above	!
0C/	ley-	1B-\	e-	0e-X\	e-
.	.	1c\	-ley-	.	.
1D\	.	1A\	.	1d\	-ley-
!	!	!LO:LB:g=original	!	!	!
=42-	=42-	=42-	=42-	=42-	=42-
0.GG/;;	-ſon	0.B-\;;	-ſon	0.d\;;	-son
=43-	=43-	=43-	=43-	=43-	=43-
*M3/1	*	*M3/1	*	*M3/1	*
1D\	Ky-	1.d\	Ky-	1d\	Ky-
1D\	-ri-	.	.	1d\	-ri-
.	.	2d\	-ri-	.	.
1D\	-e	1d\	-e	1f\	-e
=44-	=44-	=44-	=44-	=44-	=44-
*	*	*	*	*	*ij
0G\	e-	1.B-\	Ky-	1.g\	Ky-
.	.	2B-\	-ri-	2g\	-ri-
!	!	!	!	!LO:SIC:v:t=custos a	!
1G\	-ley-	1B-\	-e	1g\	-e
*	*	*	*	*	*Xij
!	!	!	!	!LO:LB:g=original	!
=45-	=45-	=45-	=45-	=45-	=45-
0F\	.	1A\	e-	1a\	e-
.	.	1A\	-ley-	1f\	.
1E\	-[ſon]	1c\	.	1g\	.
=46-	=46-	=46-	=46-	=46-	=46-
0D\	ky-	0d\	.	0f\	-ley-
1D\	-rie	1d\	-ſon	1f\	-son
=47-	=47-	=47-	=47-	=47-	=47-
*	*ij	*	*ij	*	*
1BB-/	ky-	1.B-\	Ky-	1.f\	Ky-
1BB-/	-rie	.	.	.	.
.	.	2B-\	-ri-	2f\	-ri-
1BB-/	ky-	1B-\	-e	1f\	-e
=48-	=48-	=48-	=48-	=48-	=48-
0BB-/	-rie	1.B-\	Ky-	1.f\	Ky-
*	*Xij	*	*	*	*
.	.	2B-\	-ri-	2f\	-ri-
1F\	e-	1c\	-e	1f\	-e
=49-	=49-	=49-	=49-	=49-	=49-
1G\	-ley-	1B-\	e-	1d\	e-
1D\	.	0d\	-ley-	0d\	-ley-
1D\	.	.	.	.	.
=50-	=50-	=50-	=50-	=50-	=50-
0.GG/	-ſon	0.B-\	-ſon	0.d\	-ſon
!LO:LB:g=original	!	!LO:LB:g=original	!	!	!
=51-	=51-	=51-	=51-	=51-	=51-
*	*	*	*Xij	*	*ij
1.G\	Ky-	1.B-\	Ky-	1.g\	Ky-
2G\	-ri-	2B-\	-ri-	2g\	-ri-
1G\	-e	1B-\	-e	1g\	-e
=52-	=52-	=52-	=52-	=52-	=52-
1.D\	Ky-	1.d\	Ky-	1.f\	Ky-
2D/	-ri-	2d\	-ri-	2f\	-ri-
1D\	-e	1d\	-e	1f\	-e
=53-	=53-	=53-	=53-	=53-	=53-
1BB-/	e-	1B-\	e-	1f\	e-
!	!	!	!	!LO:TX:t=P:problem:♭ above	!
1C/	-ley-	1G/	-ley-	1e-X\	-ley-
!	!	!LO:TX:t=P:problem:♯above	!	!	!
1D\	.	1F#X/	.	1d\	.
=54-	=54-	=54-	=54-	=54-	=54-
0.GG/	-ſon	0.G/	-ſo[n]	0.d\	-ſon
*	*ij	*	*ij	*	*Xij
=55-	=55-	=55-	=55-	=55-	=55-
1.G\	Ky-	1.B-\	Ky-	1.g\	Ky-
2G\	-ri-	2B-\	-ri-	2g\	-ri-
1G\	-e	1B-\	-e	1g\	-e
=56-	=56-	=56-	=56-	=56-	=56-
*	*	*	*	*	*ij
1.D\	Ky-	1.d\	Ky-	1.f\	Ky-
2D/	-ri-	2d\	-ri-	2f\	-ri-
1D\	-e	1d\	-e	1f\	-e
*	*	*	*	*	*Xij
!	!	!	!	!LO:LB:g=original	!
=57-	=57-	=57-	=57-	=57-	=57-
1F\	e-	1d\	e-	1f\	e-
1G\	-ley-	1d\	-ley-	1d\	.
!	!	!LO:TX:t=P:problem:♯above	!	!	!
1A\	.	1c#X\	.	1a\	-ley-
=58-	=58-	=58-	=58-	=58-	=58-
0.D\	-ſon	0.d\	-ſon	0.f\	-ſon
=59-	=59-	=59-	=59-	=59-	=59-
1.D\	Ky-	1.A\	Ky-	1.f\	Ky-
2D/	-ri-	2A/	-ri-	2f\	-ri-
1D\	-e	1A\	-e	1f\	-e
!LO:LB:g=original	!	!	!	!	!
=60-	=60-	=60-	=60-	=60-	=60-
*	*	*	*	*	*ij
1.BB-/	Ky-	1.B-\	Ky-	1.f\	Ky-
2BB-/	-ri-	2B-\	-ri-	2f\	-ri-
1BB-/	-e	1B-\	-e	1f\	-e
*	*	*	*	*	*Xij
!	!	!LO:LB:g=original	!	!	!
=61-	=61-	=61-	=61-	=61-	=61-
1D\	e-	1B-\	e-	1f\	e-
!LO:TX:t=P:problem:♭above	!	!	!	!LO:TX:t=P:problem:♭ above	!
1E-X\	-ley-	1B-\	-ley-	1e-X\	-ley-
1F\	.	1A\	.	1c\	.
=62-	=62-	=62-	=62-	=62-	=62-
1.BB-/	ſon	0.B-\	-ſon	0.d\	-ſon
*	*Xij	*	*Xij	*	*
2C/	.	.	.	.	.
1D\	.	.	.	.	.
=63-	=63-	=63-	=63-	=63-	=63-
1E-\	Ky-	1G/	e-	1B-/	e-
1C/	-ri-	1cny\	-ley-	1eny\	-ley-
1D\	-e	1B-\	.	1d\	.
=64-	=64-	=64-	=64-	=64-	=64-
2GG/	e-	0.B-\	-ſon	0.d\	-ſon
2AA/	.	.	.	.	.
2BB-/	.	.	.	.	.
2C/	.	.	.	.	.
1D\	.	.	.	.	.
=65-	=65-	=65-	=65-	=65-	=65-
*	*	*	*ij	*	*ij
1AA/	.	1A\	e-	1c\	e-
1BB-/	ley-	1.G/	-ley-	1d\	-ley-
1C/	.	.	.	1c\	.
.	.	2G/	.	.	.
=66-	=66-	=66-	=66-	=66-	=66-
1.FF/	ſon	0.Fny/	-son	0.c\	-ſon
*	*	*	*Xij	*	*Xij
2GG/	.	.	.	.	.
1AA/	.	.	.	.	.
=67-	=67-	=67-	=67-	=67-	=67-
1BB-/	Ky-	1.B-\	ky-	1.d\	Ky-
1GG/	-ri-	.	.	.	.
.	.	2B-\	-ri-	2d\	-ri-
1AA/	-e	1A\	-e	1c\	-e
!LO:LB:g=original	!	!	!	!	!
=68-	=68-	=68-	=68-	=68-	=68-
1.D\	e-	0A\	e-	1d\	e-
.	.	.	.	2f\	.
2C/	.	.	.	2e\	.
2BB-/	.	2B-\	.	2d\	.
2AA/	.	2c\	.	2c/	.
!	!	!	!	!LO:LB:g=original	!
=69-	=69-	=69-	=69-	=69-	=69-
1GG/	.	1d\	-ley-	0B-/	-ley-
1.G\	ley-	0G/	.	.	.
.	.	.	.	1d\	-son
2F\	.	.	.	.	.
=70-	=70-	=70-	=70-	=70-	=70-
!	!	!	!	!LO:TX:t=P:problem:♭ above	!
1.E-X\	-ſon	0B-\	-ſon	1e-X\	e-
.	.	.	.	2g\	.
2D/	.	.	.	2f\	.
1C/	.	1c\	Ky-	1e-X\	.
=71-	=71-	=71-	=71-	=71-	=71-
1.BB-/	Ky-	1.d\	.	0d\	-ley-
2AA/	-ri-	2c\	ri-	.	.
!	!	!LO:SIC:v:t=custos d	!	!	!
1GG/	-e	1B-\	-e	1g\	-ſon
!	!	!LO:LB:g=original	!	!	!
=72-	=72-	=72-	=72-	=72-	=72-
1BB-/	e-	0d\	e-	0g\	Ky-
1C/	.	.	.	.	.
!	!	!	!	!LO:TX:t=P:problem:♯ above	!
1D\	ley-	1d\	-ley-	1f#X\	-ri-
=73-	=73-	=73-	=73-	=73-	=73-
1GG/	-ſon	1d\	-ſon	1g\	-e
!	!	!	!	!LO:TX:t=P:problem:♭ above	!
1C/	e-	1c\	e-	1e-X\	e-
!LO:N:acc=#	!	!	!	!	!
!LO:TX:t=P:problem:♯above	!	!	!	!	!
1BBn/	.	1d\	-ley-	1d\	-ley-
=74-	=74-	=74-	=74-	=74-	=74-
0.C/	-ley-	0.c\	.	0.e-X\	.
=75-	=75-	=75-	=75-	=75-	=75-
0GG/;;	-ſon	0d\;;	-ſon	0d\;;	-ſon.
==	==	==	==	==	==
*-	*-	*-	*-	*-	*-
!!!system-decoration: [(s1,s2,s3)]
!!!ENC: Krzysztof Stępień
!!!END: 2021-06-28
!!!RDF**kern: < = below
!!!EED: Andrzej Borzym
!!!EST: 2021-07-08
